_includes/icons/ios-edit.svg

<svg fill="#666" height="50" viewBox="0 0 50 50" width="50" xmlns="http://www.w3.org/2000/svg"><path d="m43.125 2c-1.246094 0-2.488281.488281-3.4375 1.4375l-.8125.8125 6.875 6.875c-.003906.003906.8125-.8125.8125-.8125 1.902344-1.902344 1.898438-4.976562 0-6.875-.953125-.949219-2.191406-1.4375-3.4375-1.4375zm-5.78125 4.03125c-.226562.03125-.4375.144531-.59375.3125l-32.4375 32.46875c-.128906.117188-.226562.269531-.28125.4375l-2 7.5c-.089844.34375.011719.707031.261719.957031s.613281.351563.957031.261719l7.5-2c.167969-.054687.320313-.152344.4375-.28125l32.46875-32.4375c.398438-.386719.402344-1.023437.015625-1.421875-.386719-.398437-1.023437-.402344-1.421875-.015625l-32.28125 32.28125-4.0625-4.0625 32.28125-32.28125c.300781-.289062.390625-.738281.222656-1.121094-.167968-.382812-.554687-.621093-.972656-.597656-.03125 0-.0625 0-.09375 0z"/></svg>

<svg xmlns="http://www.w3.org/2000/svg" viewBox="0 0 50 50" width="50" height="50" fill="#666"><path d="M 43.125 2 C 41.878906 2 40.636719 2.488281 39.6875 3.4375 L 38.875 4.25 L 45.75 11.125 C 45.746094 11.128906 46.5625 10.3125 46.5625 10.3125 C 48.464844 8.410156 48.460938 5.335938 46.5625 3.4375 C 45.609375 2.488281 44.371094 2 43.125 2 Z M 37.34375 6.03125 C 37.117188 6.0625 36.90625 6.175781 36.75 6.34375 L 4.3125 38.8125 C 4.183594 38.929688 4.085938 39.082031 4.03125 39.25 L 2.03125 46.75 C 1.941406 47.09375 2.042969 47.457031 2.292969 47.707031 C 2.542969 47.957031 2.90625 48.058594 3.25 47.96875 L 10.75 45.96875 C 10.917969 45.914063 11.070313 45.816406 11.1875 45.6875 L 43.65625 13.25 C 44.054688 12.863281 44.058594 12.226563 43.671875 11.828125 C 43.285156 11.429688 42.648438 11.425781 42.25 11.8125 L 9.96875 44.09375 L 5.90625 40.03125 L 38.1875 7.75 C 38.488281 7.460938 38.578125 7.011719 38.410156 6.628906 C 38.242188 6.246094 37.855469 6.007813 37.4375 6.03125 C 37.40625 6.03125 37.375 6.03125 37.34375 6.03125 Z"/></svg>
